X:1
T:Are Ye Sleeping, Maggie
T:Are Ye Sleeping, Maggie
T:Robert Tannahill (1744-1810)
C:Robert Tannahill (1744-1810)
L:1/8
M:4/4
K:C
V:1 treble 
V:1
"Am" E3 A A2 c2 |"Em" B3 A G2 AB |"Am" c3 A{c} B3{A} G |"Em" E3 c B2 A2 |"Am" E2 A2 A3 c | %5
w: 1.~Mirk and rai- ny|is the night, there's *|no a star in|a' the car- ry.|Light- nins gleam a-|
"Em" B3 A G2 AB |"Am" c2 A2{c} B3{A} G |"Em" E2 c2 B2 A2 |"C" e4 A{B} c2 | e3 f ed c2 | %10
w: thwart the lift, and *|cauld winds drive wi'|win- ter's fu- ry.|Oh, are ye|sleep- ing, Mag- * gie,|
"G" d3 B GABc | d [eg]3 dc B2 |"Am" A3 B c2 d2 | e3 d c3 d | [ce]3 A cBAG |"Em" E2 c2"Am" B2 A2 |] %16
w: oh, and are * ye *|sleep- ing Mag- * gie,|let me in for|loud the linn is|how- ling o'er * the *|war- lock crai- gie.|

